icons/blocked-16.svg

<svg width="16" height="16" viewBox="0 0 16 16" fill="none" xmlns="http://www.w3.org/2000/svg">
<path fill-rule="evenodd" clip-rule="evenodd" d="M4.46662 0.21967C4.60727 0.0790176 4.79804 0 4.99695 0L11.003 2.98023e-07C11.202 2.98023e-07 11.3927 0.0790179 11.5334 0.21967L15.7803 4.46662C15.921 4.60727 16 4.79804 16 4.99695V11.003C16 11.202 15.921 11.3927 15.7803 11.5334L11.5334 15.7803C11.3927 15.921 11.202 16 11.003 16H4.99695C4.79804 16 4.60727 15.921 4.46662 15.7803L0.21967 11.5334C0.0790176 11.3927 0 11.202 0 11.003L2.98023e-07 4.99695C2.98023e-07 4.79804 0.0790179 4.60727 0.21967 4.46662L4.46662 0.21967ZM5.30761 1.5L1.5 5.30761L1.5 10.6924L5.30761 14.5H10.6924L14.5 10.6924V5.30761L10.6924 1.5L5.30761 1.5ZM4 7.75C4 7.33579 4.33579 7 4.75 7H11.25C11.6642 7 12 7.33579 12 7.75C12 8.16421 11.6642 8.5 11.25 8.5H4.75C4.33579 8.5 4 8.16421 4 7.75Z" fill="black"/>
</svg>

<svg xmlns="http://www.w3.org/2000/svg" width="16" height="16" viewBox="0 0 16 16"><path fill-rule="evenodd" d="M4.467.22a.75.75 0 01.53-.22h6.006a.75.75 0 01.53.22l4.247 4.247c.141.14.22.331.22.53v6.006a.75.75 0 01-.22.53l-4.247 4.247a.75.75 0 01-.53.22H4.997a.75.75 0 01-.53-.22L.22 11.533a.75.75 0 01-.22-.53V4.997a.75.75 0 01.22-.53L4.467.22zm.84 1.28L1.5 5.308v5.384L5.308 14.5h5.384l3.808-3.808V5.308L10.692 1.5H5.308zM4 7.75A.75.75 0 014.75 7h6.5a.75.75 0 010 1.5h-6.5A.75.75 0 014 7.75z"/></svg>
